!!!SOCIAL_FUNCTION:	songs of war
!!!PDT:	1918

Specific Region: Dakotas, Minnesota, Montana, Nebraska
!!!REG: Dakotas and Montana
!!!LING_GROUP: Siouan
!!!LANG: Tone
!!!OTL@ENG: He Is Returning
!!!ONM: No. 146
**kern
*Ifeme
*clefG2
*k[f#c#g#d#]
*M2/4
*>[A,A]
*>norep[A]
*>A
=1!|:
*MM56
8.g#
16g#
12g#
12a
12g#
=2
4f#
8.e
16d#
=3
2e
=4||
*M3/4
4.f#
8f#
12g#
12f#
12f#
=5||
*M2/4
2e
=6||
*M3/4
2.c#
=7||
4f#
4e
8f#
8e
=8||
*M2/4
4c#
4A
=9||
*M3/4
8.e
16e
4c#
8.e
16e
=10||
*M2/4
4..c#
16c#
=11||
*M3/4
2c#
4c#
=12||
*M2/4
4g#
4g#
=13
8g#
8g#
(16a
16g#)
8g#
=14
(4f#
4e)
=15||
*M3/4
2e
8.e
16e
=16||
*M2/4
8.g#
16g#
4g#
=17
4..f#
16g#
=18
4f#
8g#
8f#
=19
8.e
16e
[4c#
=20
4c#]
8.c#
16c#
=21
8.f#
16f#
4f#
=22
(12g#
12f#)
12f#
8e
8e
=23
4c#
[4A
=24
4A]
8.A
16A
=25||
*M3/4
8.e
16e
4c#
8e
8e
=26||
*M2/4
4..c#
16c#
=27
2c#
==:|!
*-
!!!CNT: Native American -- Sioux
!!!MRD: 1911/07//-1914///
!!!OCL: Frances Densmore
!!!YOR1: Teton Sioux Music, Bulletin 61,
!!!YOR2: Bureau of American Ethnology, Smithsonian Institution
!!!PPR: Government Printing Office
!!!PPP: Washington, D.C.
!!!PDT: 1918///
!!!ENC: Craig Stuart Sapp
!!!END: 2002/03/25/
!!!EEV: 2002/03/31/
!!!AGN: War Song/Song of a Typical War Expedition
!!!MPN@@SIO: Maka'-pezhu'tawing
!!!MPN@ENG: Earth-Medicine Woman
!!!TXO: Teton Sioux
!!!MLC: Standing Rock Reservation, South Dakota, United States of America
!!!ARL: 45.9/-100.7#
!!!catalog: Catalogue No. 689
!!!PPG: 364
!!!EFL: 150/245
!!!VTS: 3388539794
